X: 16667
T: Hanter Dro
R: three-two
M: 3/2
K: Aminor
|:e3f e2d2 c3d|e2dc B2d2 c2A2|e2ef e2d2 c3d|edc2 B2G2 A4:|
A2Bc d2d2 e4|d2ef a2g2 e4|c2de fe d4|d2ed cB cA|
A2Bc d2d2 e4|d2ef a2gf e4|c2de fe d4|d2ed cB A4||

